X:78
T:Paynes 1st Set Of Quadrilles No.3. Le4.078
B:L.Leadley MS#4 c1850
Z:Village Music Project, 2016 Steve Mansfield
M:6/8
L:1/8
Q:3/8=90
K:F
c | caa egf | c3 c2d | c2A c2A | c2B G2c |
caa (eg)f | d3 dcB | ABd BGE | G3 F2 H||
A | BGE c2B | Acf a2f | bge c2B | cdc c2A |
BGE c2B | Acf a2f | egb dce | (g3 f2) !segno! ||
[K:Bb]
A | d3 f3 | e3 gec | dfa bge | d3 (c2A) |
d3 f3 | B3 (e2g) | f2d e2c | d2 z |]

